icons/icon.svg

<svg xmlns="http://www.w3.org/2000/svg" viewBox="0 0 24 24">
<path fill="#fff" d="M3 19l9 3 9-3V5l-9-2-9 2v14z"/>
<g fill="none" stroke-width="2" stroke-linecap="round" stroke-linejoin="round">
  <path stroke="#00afeb" d="M12 8l9 10V6"/>
  <path stroke="#8cc62b" d="M3 18V6l4 8 5-6v13"/>
</g>
</svg>

<?xml version="1.0" encoding="UTF-8" standalone="no"?>
<!DOCTYPE svg PUBLIC "-//W3C//DTD SVG 1.1//EN" "http://www.w3.org/Graphics/SVG/1.1/DTD/svg11.dtd">
<svg width="100%" height="100%" viewBox="0 0 24 24" version="1.1" xmlns="http://www.w3.org/2000/svg" xmlns:xlink="http://www.w3.org/1999/xlink" xml:space="preserve" xmlns:serif="http://www.serif.com/" style="fill-rule:evenodd;clip-rule:evenodd;stroke-linecap:round;stroke-linejoin:round;stroke-miterlimit:1.5;">
    <path d="M3,19L12,22L21,19L21,5L12,3L3,5L3,19Z" style="fill:white;"/>
    <path d="M12,8L21,18L21,6" style="fill:none;stroke:rgb(51,171,255);stroke-width:2px;"/>
    <path d="M3,18L3,6L7,14L12,8L12,21" style="fill:none;stroke:rgb(15,242,95);stroke-width:2px;"/>
</svg>
